X:7619
T:Irish Union. JC.085
M:6/8
L:1/8
Q:100
S:John Clare,Poet,Helpston. (1793-1864)
R:Jig
O:England
A:Northamptonshire
N:
Z:P Headford
K:G
d/c/|BGG AGG|dBG AGG|BAG dBG|eAAA2"Qu's"(d/c/)|!
BGG EGG|DGG BGG|cec BdB|AGA A/B/c:|!
|:c|BAG dBG|dBG B>AG|BAG dBG|EAAA2c|!
BGB dBd|gfe dcB|cec BdB|AGA {(AB)}c2:|]
W:MS includes Dance Instructions.


